svgs/duotone/hand-holding-medical.svg

<svg xmlns="http://www.w3.org/2000/svg" viewBox="0 0 576 512"><!--! Font Awesome Pro 6.6.0 by @fontawesome - https://fontawesome.com License - https://fontawesome.com/license (Commercial License) Copyright 2024 Fonticons, Inc. --><defs><style>.fa-secondary{opacity:.4}</style></defs><path class="fa-secondary" d="M0 416l0 64c0 17.7 14.3 32 32 32l160 0 160.5 0c29 0 57.3-9.3 80.7-26.5l126.6-93.3c10.6-7.8 16.3-20 16.3-32.2c0-8.2-2.5-16.6-7.8-23.7c-13.1-17.8-38.1-21.6-55.9-8.5L392.6 416 272 416c-8.8 0-16-7.2-16-16s7.2-16 16-16l16 0 64 0c17.7 0 32-14.3 32-32s-14.3-32-32-32l-64 0-16 0-78.3 0c-29.1 0-57.3 9.9-80 28L68.8 384 32 384c-17.7 0-32 14.3-32 32z"/><path class="fa-primary" d="M248 0c-13.3 0-24 10.7-24 24l0 56-56 0c-13.3 0-24 10.7-24 24l0 48c0 13.3 10.7 24 24 24l56 0 0 56c0 13.3 10.7 24 24 24l48 0c13.3 0 24-10.7 24-24l0-56 56 0c13.3 0 24-10.7 24-24l0-48c0-13.3-10.7-24-24-24l-56 0 0-56c0-13.3-10.7-24-24-24L248 0z"/></svg>

<svg xmlns="http://www.w3.org/2000/svg" viewBox="0 0 576 512"><!--! Font Awesome Pro 6.4.0 by @fontawesome - https://fontawesome.com License - https://fontawesome.com/license (Commercial License) Copyright 2023 Fonticons, Inc. --><defs><style>.fa-secondary{opacity:.4}</style></defs><path class="fa-primary" d="M248 0c-13.3 0-24 10.7-24 24V80H168c-13.3 0-24 10.7-24 24v48c0 13.3 10.7 24 24 24h56v56c0 13.3 10.7 24 24 24h48c13.3 0 24-10.7 24-24V176h56c13.3 0 24-10.7 24-24V104c0-13.3-10.7-24-24-24H320V24c0-13.3-10.7-24-24-24H248z"/><path class="fa-secondary" d="M559.7 392.2c17.8-13.1 21.6-38.1 8.5-55.9s-38.1-21.6-55.9-8.5L392.6 416H272c-8.8 0-16-7.2-16-16s7.2-16 16-16h16 64c17.7 0 32-14.3 32-32s-14.3-32-32-32H288 272 193.7c-29.1 0-57.3 9.9-80 28L68.8 384H32c-17.7 0-32 14.3-32 32v64c0 17.7 14.3 32 32 32H192 352.5c29 0 57.3-9.3 80.7-26.5l126.6-93.3zm-366.1-8.3a.5 .5 0 1 1 -.9 .2 .5 .5 0 1 1 .9-.2z"/></svg>
